setcps 0.55

d1 $
-- slow "2 4 2 1" $
 stack [
  s "vk:8(3 3.5 7,11)"
  , whenmod 8 6 (slowspread ($)[slow 2, (# s"~")]) $
    foldEvery [3,5](# squiz "2 4 8") $
    s " hats(<7 10 11>,11)" # n 2 # up 12
  , s " ~ claps"
  ]
  # cut "-1"
  -- # n (run 15)
